X:1
T:Bourr\'ee
T:Bourr\'ee
T:Johann Sebastian Bach
C:Johann Sebastian Bach
%%score 1 2
L:1/8
M:2/2
K:A
V:1 treble 
V:2 bass 
V:1
 A2 | c2 BA e2 a2 | g2 fe a2 e2 | f2 b2 e2 a2 | d2 e2 dcBA | G2 FE B2 e2 | c2 BA c2 f2 | %7
 ^d2 cB f2 b2 | g2 fe a2 gf | b2 ef ^d3 e | e6 :: B2 | G2 FE B2 e2 | c2 BA e2 a2 | f2 b2 g3 f | %15
 ^e2 ^dc f2 c2 | =d2 B2 G2 c2 | A2 GF c2 f2 | d2 B2 F2 B2 | G2 FE B2 e2 | c2 BA e2 a2 | %21
 f2 ed f2 b2 | g2 fe a2 e2 | d2 cd B3 A | A6 :| %25
V:2
 z2 | z2 A,2 C2 B,A, | E2 D2 C2 B,A, | D2 CB, C2 B,A, | B,2 A,G, A,2 D,2 | E,2 F,2 G,2 F,E, | %6
 A,2 C2 A,2 G,F, | B,2 C2 ^D2 CB, | E2 ^D2 C2 B,A, | G,2 A,2 B,2 B,,2 | E,6 :: ^D,2 | %12
 E,2 F,2 G,2 F,E, | A,2 B,2 C2 B,A, | D2 DC B,2 G,2 | C2 B,2 A,2 G,F, | B,2 A,G, C2 C,2 | %17
 F,2 G,2 A,2 G,F, | B,2 B,,C, D,2 C,B,, | E,2 F,2 G,2 F,E, | A,2 B,2 C2 B,A, | D2 F2 ^D2 CB, | %22
 E2 =D2 C2 B,A, | G,2 A,2 E,2 E,,2 | A,,6 :| %25

